svgs/sharp-light/chart-waterfall.svg

<svg xmlns="http://www.w3.org/2000/svg" viewBox="0 0 512 512"><!--! Font Awesome Pro 6.6.0 by @fontawesome - https://fontawesome.com License - https://fontawesome.com/license (Commercial License) Copyright 2024 Fonticons, Inc. --><path d="M32 32l0 16 0 400 464 0 16 0 0 32-16 0L16 480 0 480l0-16L0 48 0 32l32 0zM160 224l0 16 0 96 0 16-32 0 0-16 0-96 0-16 32 0zm96-80l0 96 0 16-32 0 0-16 0-96 0-16 32 0 0 16zm96-80l0 16 0 96 0 16-32 0 0-16 0-96 0-16 32 0zm96 16l0 256 0 16-32 0 0-16 0-256 0-16 32 0 0 16z"/></svg>

<svg xmlns="http://www.w3.org/2000/svg" viewBox="0 0 512 512"><!--! Font Awesome Pro 6.4.0 by @fontawesome - https://fontawesome.com License - https://fontawesome.com/license (Commercial License) Copyright 2023 Fonticons, Inc. --><path d="M32 32V48 448H496h16v32H496 16 0V464 48 32H32zM160 224v16 96 16H128V336 240 224h32zm96-80v96 16H224V240 144 128h32v16zm96-80V80v96 16H320V176 80 64h32zm96 16V336v16H416V336 80 64h32V80z"/></svg>
